assets/Skis/Flat/skis_flat.svg

<svg width="32" height="32" viewBox="0 0 32 32" fill="none" xmlns="http://www.w3.org/2000/svg">
<path d="M21.5139 11.8047L21.2218 11.8496L17.1405 14.1795C15.2705 15.3295 13.1235 14.8725 11.9735 13.0025H11.6851L8.97037 17.9929C8.91688 18.089 8.86282 18.1852 8.80872 18.2815C8.0134 19.6968 7.21089 21.1248 8.10037 22.6229L8.3925 23.1016L13.1604 23.1029L18.8504 19.6429L22.9621 14.1735L21.5139 11.8047Z" fill="#00A6ED"/>
<path d="M12.1104 5.21283L15.6104 3.07284C15.8304 2.93284 16.1203 3.00282 16.2603 3.21282L16.75 4.03283L16.745 4.03613V4.14552L9.1988 8.7837L9.08002 8.74C8.36002 7.57 8.74037 6.03283 9.91037 5.31283L11.0504 4.61282C11.2404 4.50282 11.4904 4.56283 11.6104 4.75283L11.8604 5.15283C11.9104 5.24283 12.0204 5.26283 12.1104 5.21283Z" fill="#0074BA"/>
<path d="M21.5139 11.8046L19.6103 8.69284L16.7503 4.03284L9.08032 8.74283L11.4803 12.6528L11.6903 12.9928L11.6851 13.0025L11.7403 13.0928C12.8903 14.9628 15.3403 15.5528 17.2103 14.4028L21.5139 11.8046Z" fill="#26EAFC"/>
<path d="M9.89029 10.6727L10.7203 12.0328C10.8003 12.1628 10.9703 12.2028 11.1003 12.1228L13.0503 10.9227C13.5603 10.6127 13.7203 9.95277 13.4103 9.44277C13.1003 8.93277 12.4403 8.77275 11.9303 9.08275L9.98028 10.2828C9.85028 10.3728 9.81029 10.5427 9.89029 10.6727ZM17.9703 17.2629L22.9623 14.1733L23.8603 15.6428C24.0903 16.0228 23.9703 16.5028 23.6003 16.7328L22.9459 17.1338L18.8503 19.6429L17.8103 17.9429C17.6703 17.7129 17.7403 17.4029 17.9703 17.2629ZM10.3703 24.8129L10.2788 24.8851C9.91844 25.04 9.50023 24.9106 9.2903 24.5728L9.28167 24.5587L9.28031 24.5528L8.90029 23.9337L8.39246 23.1015L11.4403 21.2329C11.6703 21.0929 11.9803 21.1628 12.1203 21.3928L13.1603 23.1029L10.3703 24.8129ZM9.13032 17.0828L9.8903 15.6828C9.9603 15.5428 10.1303 15.4929 10.2703 15.5729L12.2803 16.6628C12.8003 16.9428 13.0003 17.6028 12.7103 18.1228C12.4303 18.6428 11.7703 18.8428 11.2503 18.5528L9.24031 17.4628C9.10031 17.3928 9.05032 17.2228 9.13032 17.0828Z" fill="#0074BA"/>
<path d="M9.06033 29.3928L29.6603 16.7828C30.0003 16.5728 30.1003 16.1428 29.9003 15.8028L28.9403 14.2329C28.7303 13.8929 28.3003 13.7928 27.9603 13.9928L7.36031 26.6029C6.91031 26.8829 6.31033 26.7428 6.03033 26.2828L5.03033 24.6428C4.56033 23.8728 3.55033 23.6329 2.78033 24.1029C2.01033 24.5729 1.77032 25.5829 2.24032 26.3529L3.24032 27.9928C4.46032 29.9828 7.06033 30.6128 9.06033 29.3928Z" fill="#FF6723"/>
</svg>

<svg xmlns="http://www.w3.org/2000/svg" width="32" height="32" fill="none"><path fill="#00A6ED" d="m21.514 11.805-.292.045-4.082 2.33c-1.87 1.15-4.017.693-5.167-1.178h-.288l-2.715 4.99-.161.29c-.796 1.415-1.598 2.843-.709 4.34l.293.48h4.767l5.69-3.46 4.112-5.468-1.448-2.37Z"/><path fill="#0074BA" d="m12.11 5.213 3.5-2.14c.22-.14.51-.07.65.14l.49.82-.005.003v.11L9.199 8.784 9.08 8.74c-.72-1.17-.34-2.707.83-3.427l1.14-.7c.19-.11.44-.05.56.14l.25.4c.05.09.16.11.25.06Z"/><path fill="#26EAFC" d="M21.514 11.805 19.61 8.693l-2.86-4.66-7.67 4.71 2.4 3.91.21.34-.005.01.055.09a3.979 3.979 0 0 0 5.47 1.31l4.304-2.598Z"/><path fill="#0074BA" d="m9.89 10.673.83 1.36c.08.13.25.17.38.09l1.95-1.2c.51-.31.67-.97.36-1.48-.31-.51-.97-.67-1.48-.36l-1.95 1.2a.29.29 0 0 0-.09.39Zm8.08 6.59 4.992-3.09.898 1.47c.23.38.11.86-.26 1.09l-.654.4-4.096 2.51-1.04-1.7a.499.499 0 0 1 .16-.68Zm-7.6 7.55-.091.072a.792.792 0 0 1-.989-.312l-.008-.014-.002-.006-.38-.62-.508-.831 3.048-1.87c.23-.14.54-.07.68.16l1.04 1.71-2.79 1.71Zm-1.24-7.73.76-1.4a.27.27 0 0 1 .38-.11l2.01 1.09c.52.28.72.94.43 1.46-.28.52-.94.72-1.46.43l-2.01-1.09a.27.27 0 0 1-.11-.38Z"/><path fill="#FF6723" d="m9.06 29.393 20.6-12.61c.34-.21.44-.64.24-.98l-.96-1.57a.715.715 0 0 0-.98-.24l-20.6 12.61a.964.964 0 0 1-1.33-.32l-1-1.64a1.638 1.638 0 0 0-2.25-.54c-.77.47-1.01 1.48-.54 2.25l1 1.64a4.235 4.235 0 0 0 5.82 1.4Z"/></svg>
